resources/haticons/SVG/view_module.svg

<!-- Generated by IcoMoon.io -->
<svg version="1.1" xmlns="http://www.w3.org/2000/svg" width="24" height="24" viewBox="0 0 24 24">
<title>view_module</title>
<path d="M15.984 5.016h5.016v6h-5.016v-6zM9.984 11.016v-6h5.016v6h-5.016zM15.984 18v-6h5.016v6h-5.016zM9.984 18v-6h5.016v6h-5.016zM3.984 18v-6h5.016v6h-5.016zM3.984 11.016v-6h5.016v6h-5.016z"></path>
</svg>

<svg xmlns="http://www.w3.org/2000/svg" width="24" height="24"><path d="M15.984 5.016H21v6h-5.016v-6zm-6 6v-6H15v6H9.984zm6 6.984v-6H21v6h-5.016zm-6 0v-6H15v6H9.984zm-6 0v-6H9v6H3.984zm0-6.984v-6H9v6H3.984z"/></svg>
